X:1
T:The Well-Tempered Clavier Part I Praeludium XV
T:BWV 860
T:J. S. Bach
%%score { 1 | 2 }
L:1/8
Q:1/4=96
M:4/4
K:G
V:1 treble nm="Harp"
V:2 bass 
V:1
"^Andante" (3G/B/d/(3g/d/B/ (3d/B/G/(3B/G/D/ (3E/G/c/(3e/c/G/ (3c/G/E/(3G/E/C/ | %1
 (3A,/C/F/(3A/F/C/ (3F/C/A,/(3C/A,/F,/ (3G,/B,/D/(3G/D/B,/ (3D/B,/G,/(3B,/G,/E,/ | %2
 (3A,/^C/E/(3A/E/C/ (3E/C/A,/(3C/A,/F,/ D z z D | %3
 (3D/^C/D/(3E/C/D/ (3F/C/D/(3G/C/D/ (3A/C/D/(3B/C/D/ (3A/C/D/(3G/C/D/ | FG AB AG FA | %5
 (3^G/B/d/(3=f/d/B/ (3d/B/G/(3B/G/E/ (3D/=F/G/(3B/G/F/ (3G/F/D/(3F/D/B,/ | Ce cA Ee cA | %7
 (3^d/f/a/(3c'/a/f/ (3a/f/d/(3f/d/B/ (3A/c/d/(3f/d/c/ (3d/c/A/(3c/A/F/ | GA Bc BA GB | %9
 (3A/^G/A/(3B/G/A/ (3^c/G/A/(3d/G/A/ (3e/G/A/(3f/G/A/ (3g/e/c/(3A/c/e/ | %10
 f z (3a/f/d/(3c/d/f/ ag (3g/e/^c/(3A/c/e/ | gf (3f/d/B/(3G/B/d/ fe (3e/^c/A/(3G/A/c/ | %12
 ed z d (3d/c/B/(3B/A/G/ (3G/B/d/(3=f/e/d/ | (3d/e/=f/e z e (3e/d/^c/(3c/B/A/ (3A/c/e/(3g/^f/e/ | %14
 (3e/f/g/f z a (3a/g/f/(3f/e/d/ (3d/f/a/(3c'/b/a/ | %15
 (3a/b/c'/b- (3b/a/g/(3=f/e/d/ (3c/e/g/(3a/^f/d/ (3B/d/f/(3g/e/c/ | %16
 (3A/c/e/(3f/d/B/ (3G/B/d/(3e/c/A/ (3F/A/c/(3d/B/G/ (3E/G/B/(3c/A/F/ | %17
 (3D/F/A/(3B/G/E/ (3C/E/G/(3A/F/D/ (3B,/D/F/(3G/E/C/ (3A,/C/E/(3F/D/C/ | !fermata![B,DG]8 |] %19
V:2
 G,G,, z G, G,G,, z G, | G,G,, z G, G,G,, z G, | %2
 G,G,, z G, (3F,/A,/^C/(3D/A,/F,/ (3A,/F,/D,/(3F,/D,/B,,/ | E,E,, z E, ^C,A,, B,,C, | %4
 (3D,/^C/D/(3E,/C/D/ (3F,/C/D/(3G,/C/D/ (3F,/C/D/(3E,/C/D/ (3D,/C/D/(3F,/C/D/ | %5
 B,,B, z A, ^G,^G,, z G, | %6
 (3A,/C/E/(3A/E/C/ (3E/C/A,/(3C/A,/E,/ (3C,/E,/A,/(3C/A,/E,/ (3A,/E,/C,/(3E,/C,/A,,/ | %7
 F,,F, z E, ^D,^D,, z D, | %8
 (3E,/^D/E/(3F,/D/E/ (3G,/D/E/(3A,/D/E/ (3G,/D/E/(3F,/D/E/ (3E,/D/E/(3G,/D/E/ | %9
 ^C,D, E,E, C,B,, A,,C, | (3D,/F,/A,/(3D/A,/F,/ D,D (3D,/G,/B,/(3D/B,/G,/ D,D | %11
 (3D,/A,/^C/(3D/A,/F,/ D,D (3D,/E,/G,/(3B,/G,/E,/ D,D | %12
 (3D,/F,/A,/(3D/A,/F,/ (3A,/F,/D,/(3F,/D,/C,/ (3B,,/D,/F,/(3G,/D,/B,,/ (3D,/B,,/G,,/(3B,,/G,,/=F,,/ | %13
 (3E,,/G,,/B,,/(3C,/E,/G,/ (3C/G,/E,/(3G,/E,/C,/ (3^C,/E,/G,/(3A,/E,/C,/ (3E,/C,/A,,/(3C,/A,,/G,,/ | %14
 (3F,,/A,,/^C,/(3D,/F,/A,/ (3D/A,/F,/(3A,/F,/D,/ (3F,/D,/A,,/(3D,/A,,/F,,/ D,,D, | %15
 G,,-(3G,,/B,,/D,/ (3G,/A,/B,/(3B,/C/D/ E(3C/A,/F,/ D(3B,/G,/E,/ | %16
 C(3A,/G,/E,/ B,(3G,/E,/C,/ A,(3F,/D,/B,,/ G,(3E,/C,/A,,/ | %17
 F,(3D,/B,,/G,,/ (3E,/C,/A,,/(3F,/D,/B,,/ G,E, C,D, | !fermata!G,,8 |] %19

